packages/calcite-ui-icons/icons/single-timeline-32.svg

<?xml version="1.0" encoding="UTF-8"?><svg id="icons" xmlns="http://www.w3.org/2000/svg" viewBox="0 0 32 32"><defs><style>.cls-1{fill:none;}</style></defs><path d="M23.45001,2.04999c-3.56226,0-6.45001,2.88776-6.45001,6.45001s2.88776,6.45001,6.45001,6.45001,6.45001-2.88782,6.45001-6.45001-2.88782-6.45001-6.45001-6.45001ZM23.5,14c-3.0329,0-5.5-2.46716-5.5-5.5s2.4671-5.5,5.5-5.5,5.5,2.4671,5.5,5.5-2.4671,5.5-5.5,5.5ZM24,8h3v1h-4v-5h1v4ZM18.94946,27c-.19934-.97833-.97113-1.75012-1.94946-1.94946v-2.34351l2.12341-2.12341c.39526.26196.86774.41638,1.37659.41638,1.37891,0,2.49-1.12109,2.49-2.5s-1.11109-2.5-2.49-2.5-2.5,1.12109-2.5,2.5c0,.50885.15442.98132.41638,1.37659l-1.91638,1.91638-1.91638-1.91638c.26196-.39526.41638-.86774.41638-1.37659,0-1.37891-1.12109-2.5-2.5-2.5s-2.5,1.12109-2.5,2.5c0,.50885.15442.98132.41638,1.37659l-1.91638,1.91638-1.91638-1.91638c.26196-.39526.41638-.86774.41638-1.37659,0-1.37891-1.12109-2.5-2.5-2.5s-2.5,1.12109-2.5,2.5,1.12109,2.5,2.5,2.5c.50885,0,.98132-.15442,1.37659-.41638l2.12341,2.12341v2.34351c-.97833.19934-1.75012.97113-1.94946,1.94946H2v1h4.05054c.23224,1.13995,1.24182,2,2.44946,2s2.21722-.86005,2.44946-2h3.10107c.23224,1.13995,1.24182,2,2.44946,2s2.21722-.86005,2.44946-2h11.05054v-1h-11.05054ZM19,18c0-.55231.44769-1,1-1h1c.55231,0,1,.44769,1,1v1c0,.55225-.44769,1-1,1h-1c-.55231,0-1-.44775-1-1v-1ZM6,19c0,.55225-.44769,1-1,1h-1c-.55231,0-1-.44775-1-1v-1c0-.55231.44769-1,1-1h1c.55231,0,1,.44769,1,1v1ZM11,18c0-.55231.44769-1,1-1h1c.55231,0,1,.44769,1,1v1c0,.55225-.44769,1-1,1h-1c-.55231,0-1-.44775-1-1v-1ZM16,25.05054c-.97833.19934-1.75012.97113-1.94946,1.94946h-3.10107c-.19934-.97833-.97113-1.75012-1.94946-1.94946v-2.34351l2.12341-2.12341c.39526.26196.86774.41638,1.37659.41638s.98132-.15442,1.37659-.41638l2.12341,2.12341v2.34351Z"/><rect class="cls-1" width="32" height="32"/></svg>

<svg xmlns="http://www.w3.org/2000/svg" viewBox="0 0 32 32"><path d="M23.45 2.05a6.45 6.45 0 1 0 0 12.9 6.45 6.45 0 0 0 0-12.9zM23.5 14c-3.033 0-5.5-2.467-5.5-5.5S20.467 3 23.5 3 29 5.467 29 8.5 26.533 14 23.5 14zm.5-6h3v1h-4V4h1v4zm-5.05 19A2.506 2.506 0 0 0 17 25.05v-2.343l2.123-2.123c.396.262.868.416 1.377.416 1.379 0 2.49-1.121 2.49-2.5S21.879 16 20.5 16 18 17.121 18 18.5c0 .509.154.981.416 1.377L16.5 21.793l-1.916-1.916c.262-.396.416-.868.416-1.377 0-1.379-1.121-2.5-2.5-2.5S10 17.121 10 18.5c0 .509.154.981.416 1.377L8.5 21.793l-1.916-1.916C6.846 19.48 7 19.009 7 18.5 7 17.121 5.879 16 4.5 16S2 17.121 2 18.5 3.121 21 4.5 21c.509 0 .981-.154 1.377-.416L8 22.707v2.344c-.978.199-1.75.97-1.95 1.949H2v1h4.05c.233 1.14 1.242 2 2.45 2s2.217-.86 2.45-2h3.1c.233 1.14 1.242 2 2.45 2s2.217-.86 2.45-2H30v-1H18.95zm.05-9a1 1 0 0 1 1-1h1a1 1 0 0 1 1 1v1a1 1 0 0 1-1 1h-1a1 1 0 0 1-1-1v-1zM6 19a1 1 0 0 1-1 1H4a1 1 0 0 1-1-1v-1a1 1 0 0 1 1-1h1a1 1 0 0 1 1 1v1zm5-1a1 1 0 0 1 1-1h1a1 1 0 0 1 1 1v1a1 1 0 0 1-1 1h-1a1 1 0 0 1-1-1v-1zm5 7.05A2.51 2.51 0 0 0 14.05 27h-3.1A2.506 2.506 0 0 0 9 25.05v-2.343l2.123-2.123a2.483 2.483 0 0 0 2.754 0L16 22.707v2.344z"/><path fill="none" d="M0 0h32v32H0z"/></svg>
